src/work/blix/blixmap/static/images/icon-small-privacy-everyone.svg

<svg height="24" viewBox="0 0 24 24" width="24" xmlns="http://www.w3.org/2000/svg"><path d="m12 24c6.627417 0 12-5.372583 12-12s-5.372583-12-12-12-12 5.372583-12 12 5.372583 12 12 12zm0-2c5.5228475 0 10-4.4771525 10-10s-4.4771525-10-10-10-10 4.4771525-10 10 4.4771525 10 10 10zm-10-10c0-.799538.11165717-1.5715549.30130725-2.31265972.15554355.24827993.44181247.54467272.9534598.70517982.34622568 1.2123551 1.83202281 2.2283763 1.83202281 2.2283763s-1.05322391 1.7043936-.5849715 2.7576666c.46815412 1.0532239 1.83359544 1.287301 1.91158836 1.8335954.04290348.2997347-.19638293 1.4570474-.42117161 2.4410753-2.4103106-1.6938274-3.99223511-4.4902201-3.99223511-7.6532337zm9.9996069.0000002c-1.0144978-1.2511066-4.19903682-.6001247-4.78410661-.8085987-.44859445-.1599281-2.28916839-1.49914233-.71550027-1.86407686 3.49052445-.80945463 3.45768614-4.02484044 3.49999988-4.79306286.0279634-.50579109.8145273-2.06519532.6548065-2.41878148.4402889-.06824791.8868193-.1154803 1.3447022-.1154803 1.1265972 0 2.2025751.22486609 3.2036072.61712082l-1.2031159.83037583v1.08676513s3.1136822-.32830561 3.5530274-.56242783c.2242481.1776337.7386966.76659375.9469726.96434982-.6040888.20216933-2.7862688 1.23471446-2.6406525 1.45359113.1805091.27125786.6406524 1.33396028.6406524 1.33396028s2.4359153-.70517585 3.6762829-.56952065c.4651071.89389526.8067132 1.87011882.9979359 2.90466047-1.0754374-.40996032-1.720366-1.21495992-2.9973465-.73155036-1.8723708.70911626-4.1768723 2.13811926-2.9255943 4.53320586 1.2512779 2.3950866 2.484481.5433245 2.9255946 2.5021606.8231274 3.6552299-3.9524769 5.6373089-6.1772656 5.6373089-.9438274-.0000525-1.8538922-.1533608-2.71328873-.4323944.84701203-1.1326316 3.72724593-8.3164988 2.71328883-9.5676054z" fill-rule="evenodd"/></svg>

<?xml version="1.0" encoding="UTF-8" standalone="no"?>
<svg width="24px" height="24px" viewBox="0 0 24 24" version="1.1" xmlns="http://www.w3.org/2000/svg" xmlns:xlink="http://www.w3.org/1999/xlink" xmlns:sketch="http://www.bohemiancoding.com/sketch/ns">
    <!-- Generator: Sketch 3.1.1 (8761) - http://www.bohemiancoding.com/sketch -->
    <title>icon-small-privacy-everyone</title>
    <desc>Created with Sketch.</desc>
    <defs></defs>
    <g id="List-View" stroke="none" stroke-width="1" fill="none" fill-rule="evenodd" sketch:type="MSPage">
        <g id="icon-small-privacy-everyone" sketch:type="MSLayerGroup" fill="#000000">
            <path d="M12,24 C18.627417,24 24,18.627417 24,12 C24,5.372583 18.627417,0 12,0 C5.372583,0 0,5.372583 0,12 C0,18.627417 5.372583,24 12,24 Z M12,22 C17.5228475,22 22,17.5228475 22,12 C22,6.4771525 17.5228475,2 12,2 C6.4771525,2 2,6.4771525 2,12 C2,17.5228475 6.4771525,22 12,22 Z M2,12 C2,11.200462 2.11165717,10.4284451 2.30130725,9.68734028 C2.4568508,9.93562021 2.74311972,10.232013 3.25476705,10.3925201 C3.60099273,11.6048752 5.08678986,12.6208964 5.08678986,12.6208964 C5.08678986,12.6208964 4.03356595,14.32529 4.50181836,15.378563 C4.96997248,16.4317869 6.3354138,16.665864 6.41340672,17.2121584 C6.4563102,17.5118931 6.21702379,18.6692058 5.99223511,19.6532337 C3.58192451,17.9594063 2,15.1630136 2,12 Z M11.9996069,12.0000002 C10.9851091,10.7488936 7.80057008,11.3998755 7.21550029,11.1914015 C6.76690584,11.0314734 4.9263319,9.69225917 6.50000002,9.32732464 C9.99052447,8.51787001 9.95768616,5.3024842 9.9999999,4.53426178 C10.0279633,4.02847069 10.8145272,2.46906646 10.6548064,2.1154803 C11.0950953,2.04723239 11.5416257,2 11.9995086,2 C13.1261058,2 14.2020837,2.22486609 15.2031158,2.61712082 L13.9999999,3.44749665 L13.9999999,4.53426178 C13.9999999,4.53426178 17.1136821,4.20595617 17.5530273,3.97183395 C17.7772754,4.14946765 18.2917239,4.7384277 18.4999999,4.93618377 C17.8959111,5.1383531 15.7137311,6.17089823 15.8593474,6.3897749 C16.0398565,6.66103276 16.4999998,7.72373518 16.4999998,7.72373518 C16.4999998,7.72373518 18.9359151,7.01855933 20.1762827,7.15421453 C20.6413898,8.04810979 20.9829959,9.02433335 21.1742186,10.058875 C20.0987812,9.64891468 19.4538526,8.84391508 18.1768721,9.32732464 C16.3045013,10.0364409 13.9999998,11.4654439 15.2512778,13.8605305 C16.5025557,16.2556171 17.7357588,14.403855 18.1768724,16.3626911 C18.9999998,20.017921 14.2243955,22 11.9996068,22 C11.0557794,21.9999475 10.1457146,21.8466392 9.28631807,21.5676056 C10.1333301,20.434974 13.013564,13.2511068 11.9996069,12.0000002 Z" id="Oval-403" sketch:type="MSShapeGroup"></path>
        </g>
    </g>
</svg>
